X: 1
T: H\"arjedalsschottis
C: trad. H\"arjedalen
R: shottish
S: Fiddle Hell Online 2020-11-05 handout from Bronwyn Bird
S: Fiddle Hell Online 2022-4-2 handout for Bronwyn Bird's Swedish Jam
Z: 2020 John Chambers <jc:trillian.mit.edu>
N: The printed version has somewhat inconsistent beaming; simplified to show 2 "beats" per measure.
N: Double thin bar lines show the phrases; the printed version has 4 staff lines.
M: C|
L: 1/8
K: Ddor
|: DCDE F2(FG) | AGBG A2(Ac- | c)(dc)B G2G2- | G(Bd)B F2F2 |\
|  DCDEF2 (FG) | AGBG A2(Ac- | c)(dc)B G2(EC) | D2D2 D2z2 :|
|: ud(ed)(B c)(dc)(A | B)(dB)G A2A2 | DCDE F2(FG) | AGBG A2(Ad- |\
|  d)(ed)(B c)(dc)(A | B)(dB)G A2A2 | DCD(E F)(GF)D | E2C2 D4 :|
